X:50
T:Great Glen of Scotland, The
T:Gleann M\`or na h-Albainn
R:Slow Air
S:Simon Fraser Collection
N:No.89
O:Scottish
M:6/8
L:1/8
Q:3/8=50
K:D
d/>B/|AFF D>F F/G/|A>BA/G/ F2 d/>B/|AFF F>EF/G/|FB>A B>cd/>G/|
AFF D>F F/G/|A>BA/F/ d2 d/e/|f>ed/c/ dB/A/G/^E/|Fdc B2:|a/g/|
Faa eaa|a>ba/=g/ f2 a/g/|fa/^g/a/f/ ea/g/a/e/|fb<^a b2 b/c'/|
d'/c'/b/a/g/f/ b/a/g/f/e/d/|a>ba/g/ f2 d/e/|f>ed/c/ dB/A/G/^E/|
Fcd B2 A/G/|FAA EAA|A>BA/G/ F2 G|FA/^G/A/F/ EA/G/A/E/|
fB>^A B2 B/c/|d/c/B/A/G/F/ B/A/G/F/E/D/|A>BA/G/ F2 D/>E/|
F>ED EDC|CF^A, B,2||

